source/images/logo/gridsome.svg

<svg fill="none" height="65" viewBox="0 0 65 65" width="65" xmlns="http://www.w3.org/2000/svg" xmlns:xlink="http://www.w3.org/1999/xlink"><linearGradient id="a" gradientUnits="userSpaceOnUse" x1="32.9811" x2="32.9811" y1="26.666" y2="64.4351"><stop offset="0" stop-color="#00583e"/><stop offset="1" stop-color="#00835c"/></linearGradient><clipPath id="b"><path d="m.975098.5h64v64h-64z"/></clipPath><g clip-path="url(#b)"><path d="m58.8347 26.9831c3.0772-.1478 5.801 2.2393 6.0667 5.3191 1.151 14.8994-12.4847 31.5901-31.7001 32.1238-16.193.3997-32.20838-12.5644-32.20838-32.1664 0-3.0892 2.55275-5.5936 5.63342-5.5936s5.57806 2.5044 5.57806 5.5936c0 12.8938 10.3674 21.2383 20.7226 20.9829 12.7475-.3543 21.0346-11.392 20.6036-20.4043-.1479-3.0856 2.2272-5.7069 5.3041-5.8551z" fill="url(#a)"/><g fill="#00a672"><path d="m44.9 32.6934c0-3.1627 2.5799-5.7266 5.7621-5.7266h8.3973c3.1825 0 5.8421 2.5639 5.8421 5.7266 0 3.1629-2.6596 5.7268-5.8421 5.7268h-8.3973c-3.1822 0-5.7621-2.5639-5.7621-5.7268z"/><path d="m27.2804 32.7017c0-3.1673 2.5634-5.7349 5.7219-5.7349 3.1587 0 5.7221 2.5676 5.7221 5.7349 0 3.1674-2.5634 5.7352-5.7221 5.7352-3.1585 0-5.7219-2.5678-5.7219-5.7352z"/><path clip-rule="evenodd" d="m38.5659 5.90646c.128 3.08657-2.2638 5.69264-5.3418 5.82084-13.2873.5533-21.3991 10.9967-21.0042 20.9128.1229 3.0867-2.22291 5.689-5.30115 5.8123-3.07822.1233-5.78519-2.368-5.9081-5.4546-.643431-16.1594 12.81165-32.134244 31.75055-32.44797 3.078-.128184 5.6769 2.27006 5.8047 5.35663z" fill-rule="evenodd"/></g></g></svg>

<svg width="65" height="65" viewBox="0 0 65 65" fill="none" xmlns="http://www.w3.org/2000/svg">
<g clip-path="url(#clip0)">
<path d="M58.8347 26.9831C61.9119 26.8353 64.6357 29.2224 64.9014 32.3022C66.0524 47.2016 52.4167 63.8923 33.2013 64.426C17.0083 64.8257 0.99292 51.8616 0.99292 32.2596C0.99292 29.1704 3.54567 26.666 6.62634 26.666C9.70701 26.666 12.2044 29.1704 12.2044 32.2596C12.2044 45.1534 22.5718 53.4979 32.927 53.2425C45.6745 52.8882 53.9616 41.8505 53.5306 32.8382C53.3827 29.7526 55.7578 27.1313 58.8347 26.9831Z" fill="url(#paint0_linear)"/>
<path d="M44.9 32.6934C44.9 29.5307 47.4799 26.9668 50.6621 26.9668H59.0594C62.2419 26.9668 64.9015 29.5307 64.9015 32.6934C64.9015 35.8563 62.2419 38.4202 59.0594 38.4202H50.6621C47.4799 38.4202 44.9 35.8563 44.9 32.6934Z" fill="#00A672"/>
<path d="M27.2804 32.7017C27.2804 29.5344 29.8438 26.9668 33.0023 26.9668C36.161 26.9668 38.7244 29.5344 38.7244 32.7017C38.7244 35.8691 36.161 38.4369 33.0023 38.4369C29.8438 38.4369 27.2804 35.8691 27.2804 32.7017Z" fill="#00A672"/>
<path fill-rule="evenodd" clip-rule="evenodd" d="M38.5659 5.90646C38.6939 8.99303 36.3021 11.5991 33.2241 11.7273C19.9368 12.2806 11.825 22.724 12.2199 32.6401C12.3428 35.7268 9.99699 38.3291 6.91875 38.4524C3.84053 38.5757 1.13356 36.0844 1.01065 32.9978C0.367219 16.8384 13.8223 0.863556 32.7612 0.54983C35.8392 0.421646 38.4381 2.81989 38.5659 5.90646Z" fill="#00A672"/>
</g>
<defs>
<linearGradient id="paint0_linear" x1="32.9811" y1="26.666" x2="32.9811" y2="64.4351" gradientUnits="userSpaceOnUse">
<stop stop-color="#00583E"/>
<stop offset="1" stop-color="#00835C"/>
</linearGradient>
<clipPath id="clip0">
<rect width="64" height="64" fill="white" transform="translate(0.975098 0.5)"/>
</clipPath>
</defs>
</svg>
